X: 113101
Q: "Strathspey."
M: C
L: 1/16
K: D
|: uB,2 |\
vA,3uB, DD3 D4 (d3B) | AF3 vE3uD E4 (E3F) |\
vA,3uB, DD3 D4 (d3B) | AF3 E3F D4- D2 :|\
(3(uABc) |\
vd3ued2c2 B3AB2d2 | AF3 E3D E4- E2(3(ABc) |
d3ed2c2 B2A2B2d2 | AF3E3F D4- D2(3(ABc) |\
d3ed2c2 B3AB2d2 | A2F2E2D2 E4 (E2F2) |\


